X: 122006
P: Same figure.
M: 2/4
L: 1/16
K: D
uA2 |\
d2(3(edc) d2A2 | F2A2A2z2 |\
d2(3(edc) d2B2 | G2B2B2z2 |\
d2(3(edc) d2A2 | f2f2d2d2 |\
e2e2c2c2 | d2z2 d2 |]\
uA2 |\
d2d2e2f2 | dedc B2c2 |
e2f2e2B2 | cdcB A2f2 |\
e2d2 F2^G2 | A2z2 vF2A2 |\
e2z2 d2d2 |\
c2c2 d2cd | e2AA A2A2 ||\
d3dd2A2 | F2A2A2z2 |\
d3dd2B2 | G2B2B2z2 |\
d3dd2d2 | f2f2d2d2 |\
e2e2c2c2 | d2z2 d2 |]


